!!!OTL: 49. Freiheitskaempfer. / [Weihelied der schwarzen Freischaar 1813.*]
!!!ODT: 1818
!!!ARE: Europa, Mitteleuropa, Deutschland
!!!SCT: B0049
!!!TXL: @@DE
!!!YEM: Copyright 1995, estate of Helmut Schaffrath.
**kern	**text
*ICvox	*
*Ivox	*
*M4/4	*
*met(c)	*
*clefG2	*
*k[b-e-a-]	*
*E-:	*
{8e-L	Es
8fJ	.
=1	=1
4g	ſei
4a-	mein
4b-	Herʒ
8ccL	und
8ddJ	.
=2	=2
4ee-	Blut
8ddL	ge-
8ccJ	.
4b-}	-weiht,
{4cc	dich
=3	=3
4a-	Va-
4b-/	-ter-
4g	-land
8b-/L	ʒu
8a-J	.
=4	=4
4g	ret-
4f	-ten!
4r}	.
{8e-L	Wohl-
8fJ	.
=5	=5
4g	-an,
4a-	es
4b-	gilt,
8ccL	du
8ddJ	.
=6	=6
4ee-	ſeiſt
8ddL	be-
8ccJ	.
4b-}	-freit,
{4cc	wir
=7	=7
4a-	ſpren-
4b-/	-gen
4g	dei-
8b-L	-ne
8a-J	.
=8	=8
4g	Ket-
4f	-ten!
4r}	.
{4f	Nicht
=9	=9
4f	für-
4g	-der
4.a-	ſoll
8f	die
=10	=10
4g	ar-
4a-	-ge
4b-/}	That,
{4b-	des
=11	=11
4cc	Fremdlings
4b-	.
4cc	Ue-
4dd	-ber-
=12	=12
4ee-	-muth,
8ddL	Ver-
8ccJ	.
4b-}	-rath,
{4cc	in
=13	=13
4a-	dei-
4b-/	-nem
4g	Schoß
8b-/L	ſich
8a-J	.
=14	=14
(>4g	bet-
4f)	.
4e-;}	-ten.
==	==
!!!AGN: Kriegs -, Sieges -, Soldaten - Lied
!!!GTL: Kriegs- und Siegeslieder
!!!ONB: ESAC (Essen Associative Code) Database: BOEHME
!!!AMT: simple quadruple
!!!AIN: vox
!!!EED: Helmut Schaffrath
!!!EEV: 1.0
!!!RDF**kern: > = above
!!@@COMMENT:"Gedicht von Friedr. v. Schlegel, 1809. Nach deſſen "Sämmtlichen Werken", (2. Original-
!! Ausgabe) X, Wien 1846, berichtigt.
!! * Wurde in den Kriegsjahren nach der Choralmelodie: "Allein Gott in der Höh" geſungen."
!!@@END:
!!Text: Friedr. v. Schlegel
!!!URL-scan: https://archive.org/details/BoehmeVtLieder1895/page/n65/mode/2up
!!!ENC: Anna Maria Matuszewska
!!!EEV: 2024/14/06
*-	*-
